X:337
T:Karoun Karoun
T:Garoon Garoon
Z:Jack Campin, http://www.campin.me.uk/
F:Jack Campin's Nine-Note Tunebook
% last edit 03-02-2014
M:2/4
L:1/8
Q:1/4=120
K:GMin
GG  GA|BB/c/ AG|^FF   FG   |AA/B/ G2 |\
GD  GB|dd    c2| A>G ^FG   |AB    G2:|
d>d dd|dd    dd| c2   Bc/B/|A4       |\
c>c cc|cc    dd| B2   cd   |d4      :|
B>B BB|BB    BB| c2   Bc/B/|A4       |\
AA  AA|cc    BA| AG   G^F  |G4       |
B>B BB|BB    BB| d2   B2   |A4       |\
A>A AA|cc    BA| AG   G^F  |G4      |]

